assets/img/cds-secured-storage.svg

<svg fill="none" height="415" viewBox="0 0 497 415" width="497" xmlns="http://www.w3.org/2000/svg" xmlns:xlink="http://www.w3.org/1999/xlink"><linearGradient id="a"><stop offset="0" stop-color="#199dff"/><stop offset="1" stop-color="#0083e4"/></linearGradient><linearGradient id="b" gradientUnits="userSpaceOnUse" x1="248.409" x2="248.409" xlink:href="#a" y1="0" y2="414.86"/><linearGradient id="c" gradientUnits="userSpaceOnUse" x1="395.246" x2="395.246" xlink:href="#a" y1="178.664" y2="235.785"/><path d="m154.005 405.901c44.324 14.09 200.09 10.082 200.09-1.805 0-7.851-42.016-8.886-46.566-9.195-8.133-.558-16.763-1.437-25.36-1.918 38.625-19.613 70.504-52.082 89.297-91.121 90.148 25.902 161.03-75.359 106.02-151.16-1.16-20.734-.789-50.621-2.531-70.9409-9.261-101.36-121.96-97.805-146.46-35.781-4.398 11.176-6.656 23.703-7.043 38.035-12.031-12.012-27.258-23.695-42.008-31.457-130.37-67.527-277.31969 30.898-279.3796908 166.1999-2.3827992 86.938 61.6799908 170.51 153.9496908 189.14zm-142.2905-192.55c30.055 11.832 60.719 19.5 93.4385 23.383 1.168 26.383 3.394 49.836 9.972 76.688-19.2418 7.293-36.4338 18.09-50.5118 31.973-34.016-33.852-54.77299-80.641-52.898-132.04zm120.1405-94.125c19.23 6.926 39.402 11.012 58.98 11.914 1.453 31.133 2.183 63.156 2.152 96.449-28.441 1.508-53.105 1.117-76.734-1.207-1.301-37.141 4.75-74.871 15.602-107.16zm-49.9385-40.8159c23.4265-18.312 51.2465-31.051 81.2465-35.969-14.141 12.93-27.691 34.379-38.227 61.7229-15.613-6.6991-29.7425-15.1479-43.0205-25.7539zm236.3105 16.879c.671.7227 2.3 2.4492 3.031 3.2188-.028 7.2651-.09 17.4381.828 40.8361-20.562 21.773-29.266 48.922-24.805 78.926-5.543.543-11.07 1.098-16.582 1.672 2.015-40.633-3.117-70.098-12.758-100 14.203-4.934 38.902-17.953 50.285-24.6482zm48.035 16.6559c.039-12.0939 1.687-37.1129 5.484-46.0199 8.227-19.715 26.82-26.387 43.883-18.039 6.012 5.3008 9.851 12.297 11.414 20.098 3.238 16.398 3.609 30.129 3.648 46.0469-20.148-7.926-42.52-8.762-64.43-2.086zm80.645 24.184c32.785 24.949 41.98 74.41 20.863 110.76-6.954 11.977-16.825 21.238-33.024 30.977-35.207 21.121-72.245 6.465-71.479 6.555-.766-.543-43.125-11.781-53.793-62.23-16.754-78.312 75.909-132.8902 137.429-86.059zm-330.18 101.85c27.047 2.563 50.352 2.453 76.211 1.106-.125 20.824-.512 42.117-1.207 64.016-23.539-1.817-44.832.347-65.68 6.593-6.094-25.273-8.25-47.859-9.325-71.715zm151.619-5.195c-2.394 27.133-7.187 58.914-15.698 84.68-16.258-6.504-32.824-10.992-49.445-13.273.718-22.492 1.121-44.355 1.242-65.723 20.516-1.289 40.734-3.266 63.902-5.684zm31.164-3.168c6.321 23.824 21.032 45.023 42.735 57.801 3.238 2.734 6.906 5.101 10.742 7.133-9.93 21.359-24.121 40.852-41.488 56.672-15.5-11.809-31.691-21.512-48.27-29.125 9.109-27.191 14.492-62.035 16.797-90.516 6.476-.676 12.972-1.332 19.483-1.965zm-74.733 144.55c-8.313 11.918-14.336 20.535-25.984 22.637 1.73-27.918 3.058-54.867 4-81.004 15.43 2.219 30.824 6.422 45.957 12.508-6.415 16.738-14.445 32.211-23.973 45.859zm34.522-41.23c14.781 6.863 29.235 15.547 43.161 25.945-22.73 18.176-48.988 30.523-79.23 36.188 9.644-10.52 25.249-34.082 36.069-62.133zm-67.976-18.32c-.961 26.844-2.325 54.543-4.122 83.289-3.394-.254-6.492-1.297-10.906-3.508-25.191-12.621-39.527-46.398-47.266-73.383 19.777-5.988 39.676-8.199 62.293-6.398zm-34.34 80.164c-32.25-6.375-60.5045-21.027-83.8285-41.473 12.586-12.297 27.8555-21.938 44.9735-28.594 7.332 25.391 18.895 52.398 38.855 70.066zm112.199-173.65c-23.59 2.472-44.042 4.492-64.687 5.808.019-32.957-.696-64.688-2.125-95.543 18.43-.16 36.707-2.906 54.594-8.047 9.695 30.047 14.421 58.762 12.218 97.781zm-67.354-101.34c-1.422-27.0232-3.422-53.3792-5.977-79.3202 19.715 2.5234 36.949 24.801 45.992 43.891 3.848 8.1211 7.812 17.9802 11.406 28.0702-16.852 4.797-34.09 7.269-51.422 7.359zm-17.383-77.7462c2.488 25.367 4.453 51.137 5.851 77.5512-18.277-.996-36.852-4.817-54.551-11.191 13.902-36.0312 32.695-60.0312 48.699-66.3592zm158.409-1.1797c26.133-44.44902 112.99-43.91001 120.64 39.926 1.317 15.414 1.383 36.8199 1.926 56.1989-10.008-9.398-15.312-13.141-23.199-17.535.012-18.309-.066-34.3549-3.883-53.7109-1.558-7.7461-4.921-14.984-9.679-20.867-17.543-22.297-48.508-18.891-65.707.8398-5.246 6.2461-6.996 14.062-9.067 21.934-.089.3633-3.527 33.1451-2.218 47.5471-.204.594-.317 1.223-.321 1.867l.539.012c.024.168.067.262.09.426-5.406 2.625-10.227 5.011-18.66 11.621-.957-33.2704-3.105-67.5434 9.539-88.2584zm-32.979 45.984c-10.75 6.1289-32.684 17.6879-45.613 22.1949-8.602-24.2419-18.527-47.9019-37.566-65.1519 33.52 6.7695 60.241 21.316 83.179 42.957zm-236.9905-.9258c14.629 11.984 30.4495 21.5507 48.1525 29.0777-11.18 33.156-17.559 72.832-16.328 110.09-53.8955-6.656-87.0435-22.195-92.1415-23.617 4.8164-45.34 27.363-86.266 60.316-115.5497z" fill="url(#b)"/><path d="m391.285 208.471c-.555 7.98 1.113 17.129 3.992 24.234.554 1.367 1.41 2.894 2.875 3.066 1.023.117 2.015-.527 2.59-1.382.574-.856.808-1.887.992-2.903 1.433-7.82.754-15.852.051-23.77 6.156-3.097 9.976-10.648 8.328-17.418-1.879-7.711-10.531-13.059-18.27-11.297l-.911.238c-7.617 2.235-12.561 11.121-10.444 18.77 1.406 5.079 5.777 8.969 10.797 10.461z" fill="url(#c)"/></svg>

<svg width="497" height="415" viewBox="0 0 497 415" fill="none" xmlns="http://www.w3.org/2000/svg">
<path d="M154.005 405.901C198.329 419.991 354.095 415.983 354.095 404.096C354.095 396.245 312.079 395.21 307.529 394.901C299.396 394.343 290.766 393.464 282.169 392.983C320.794 373.37 352.673 340.901 371.466 301.862C461.614 327.764 532.496 226.503 477.486 150.702C476.326 129.968 476.697 100.081 474.955 79.7611C465.694 -21.5989 352.995 -18.0439 328.495 43.9801C324.097 55.1561 321.839 67.6831 321.452 82.0151C309.421 70.0031 294.194 58.3201 279.444 50.5581C149.074 -16.9689 2.12431 81.4561 0.0643092 216.758C-2.31849 303.696 61.7443 387.268 154.014 405.898L154.005 405.901ZM11.7145 213.351C41.7695 225.183 72.4335 232.851 105.153 236.734C106.321 263.117 108.547 286.57 115.125 313.422C95.8832 320.715 78.6912 331.512 64.6132 345.395C30.5972 311.543 9.84021 264.754 11.7152 213.355L11.7145 213.351ZM131.855 119.226C151.085 126.152 171.257 130.238 190.835 131.14C192.288 162.273 193.018 194.296 192.987 227.589C164.546 229.097 139.882 228.706 116.253 226.382C114.952 189.241 121.003 151.511 131.855 119.222L131.855 119.226ZM81.9165 78.4101C105.343 60.0981 133.163 47.3591 163.163 42.4411C149.022 55.3711 135.472 76.8201 124.936 104.164C109.323 97.4649 95.1935 89.0161 81.9155 78.4101H81.9165ZM318.227 95.2891C318.898 96.0118 320.527 97.7383 321.258 98.5079C321.23 105.773 321.168 115.946 322.086 139.344C301.524 161.117 292.82 188.266 297.281 218.27C291.738 218.813 286.211 219.368 280.699 219.942C282.714 179.309 277.582 149.844 267.941 119.942C282.144 115.008 306.843 101.989 318.226 95.2938L318.227 95.2891ZM366.262 111.945C366.301 99.8511 367.949 74.8321 371.746 65.9251C379.973 46.2101 398.566 39.5381 415.629 47.8861C421.641 53.1869 425.48 60.1831 427.043 67.9841C430.281 84.3821 430.652 98.1131 430.691 114.031C410.543 106.105 388.171 105.269 366.261 111.945L366.262 111.945ZM446.907 136.129C479.692 161.078 488.887 210.539 467.77 246.889C460.816 258.866 450.945 268.127 434.746 277.866C399.539 298.987 362.501 284.331 363.267 284.421C362.501 283.878 320.142 272.64 309.474 222.191C292.72 143.879 385.383 89.3008 446.903 136.132L446.907 136.129ZM116.727 237.979C143.774 240.542 167.079 240.432 192.938 239.085C192.813 259.909 192.426 281.202 191.731 303.101C168.192 301.284 146.899 303.448 126.051 309.694C119.957 284.421 117.801 261.835 116.726 237.979L116.727 237.979ZM268.346 232.784C265.952 259.917 261.159 291.698 252.648 317.464C236.39 310.96 219.824 306.472 203.203 304.191C203.921 281.699 204.324 259.836 204.445 238.468C224.961 237.179 245.179 235.202 268.347 232.784L268.346 232.784ZM299.51 229.616C305.831 253.44 320.542 274.639 342.245 287.417C345.483 290.151 349.151 292.518 352.987 294.55C343.057 315.909 328.866 335.402 311.499 351.222C295.999 339.413 279.808 329.71 263.229 322.097C272.338 294.906 277.721 260.062 280.026 231.581C286.502 230.905 292.998 230.249 299.509 229.616H299.51ZM224.777 374.166C216.464 386.084 210.441 394.701 198.793 396.803C200.523 368.885 201.851 341.936 202.793 315.799C218.223 318.018 233.617 322.221 248.75 328.307C242.335 345.045 234.305 360.518 224.777 374.166V374.166ZM259.299 332.936C274.08 339.799 288.534 348.483 302.46 358.881C279.73 377.057 253.472 389.404 223.23 395.069C232.874 384.549 248.479 360.987 259.299 332.936V332.936ZM191.323 314.616C190.362 341.46 188.998 369.159 187.201 397.905C183.807 397.651 180.709 396.608 176.295 394.397C151.104 381.776 136.768 347.999 129.029 321.014C148.806 315.026 168.705 312.815 191.322 314.616L191.323 314.616ZM156.983 394.78C124.733 388.405 96.4785 373.753 73.1545 353.307C85.7405 341.01 101.01 331.369 118.128 324.713C125.46 350.104 137.023 377.111 156.983 394.779V394.78ZM269.182 221.13C245.592 223.602 225.14 225.622 204.495 226.938C204.514 193.981 203.799 162.25 202.37 131.395C220.8 131.235 239.077 128.489 256.964 123.348C266.659 153.395 271.385 182.11 269.182 221.129V221.13ZM201.828 119.79C200.406 92.7668 198.406 66.4108 195.851 40.4698C215.566 42.9932 232.8 65.2708 241.843 84.3608C245.691 92.4819 249.655 102.341 253.249 112.431C236.397 117.228 219.159 119.7 201.827 119.79L201.828 119.79ZM184.445 42.0438C186.933 67.4108 188.898 93.1808 190.296 119.595C172.019 118.599 153.444 114.778 135.745 108.404C149.647 72.3728 168.44 48.3728 184.444 42.0448L184.445 42.0438ZM342.854 40.8641C368.987 -3.58492 455.844 -3.04591 463.494 80.7901C464.811 96.2041 464.877 117.61 465.42 136.989C455.412 127.591 450.108 123.848 442.221 119.454C442.233 101.145 442.155 85.0991 438.338 65.7431C436.78 57.997 433.417 50.7591 428.659 44.8761C411.116 22.5791 380.151 25.9851 362.952 45.7159C357.706 51.962 355.956 59.7779 353.885 67.6499C353.796 68.0132 350.358 100.795 351.667 115.197C351.463 115.791 351.35 116.42 351.346 117.064L351.885 117.076C351.909 117.244 351.952 117.338 351.975 117.502C346.569 120.127 341.748 122.513 333.315 129.123C332.358 95.8526 330.21 61.5796 342.854 40.8646L342.854 40.8641ZM309.875 86.8481C299.125 92.977 277.191 104.536 264.262 109.043C255.66 84.8011 245.735 61.1411 226.696 43.8911C260.216 50.6606 286.937 65.2071 309.875 86.8481H309.875ZM72.8845 85.9223C87.5135 97.9063 103.334 107.473 121.037 115C109.857 148.156 103.478 187.832 104.709 225.09C50.8135 218.434 17.6655 202.895 12.5675 201.473C17.3839 156.133 39.9305 115.207 72.8835 85.9233L72.8845 85.9223Z" fill="url(#paint0_linear_4015_624)"/>
<path d="M391.285 208.471C390.73 216.451 392.398 225.6 395.277 232.705C395.831 234.072 396.687 235.599 398.152 235.771C399.175 235.888 400.167 235.244 400.742 234.389C401.316 233.533 401.55 232.502 401.734 231.486C403.167 223.666 402.488 215.634 401.785 207.716C407.941 204.619 411.761 197.068 410.113 190.298C408.234 182.587 399.582 177.239 391.843 179.001L390.932 179.239C383.315 181.474 378.371 190.36 380.488 198.009C381.894 203.088 386.265 206.978 391.285 208.47L391.285 208.471Z" fill="url(#paint1_linear_4015_624)"/>
<defs>
<linearGradient id="paint0_linear_4015_624" x1="248.409" y1="0" x2="248.409" y2="414.86" gradientUnits="userSpaceOnUse">
<stop stop-color="#199DFF"/>
<stop offset="1" stop-color="#0083E4"/>
</linearGradient>
<linearGradient id="paint1_linear_4015_624" x1="395.246" y1="178.664" x2="395.246" y2="235.785" gradientUnits="userSpaceOnUse">
<stop stop-color="#199DFF"/>
<stop offset="1" stop-color="#0083E4"/>
</linearGradient>
</defs>
</svg>
